static/assets/images/networks/bitlayer.svg

<svg width="256" height="256" viewBox="0 0 256 256" fill="none" xmlns="http://www.w3.org/2000/svg">
<path d="M128 256C198.692 256 256 198.692 256 128C256 57.3075 198.692 0 128 0C57.3075 0 0 57.3075 0 128C0 198.692 57.3075 256 128 256Z" fill="black"/>
<path fill-rule="evenodd" clip-rule="evenodd" d="M56.6926 59.3894C52.8365 59.4923 49.0301 60.2837 45.4545 61.7257L43.5 62.6019V92.9744L44.8681 92.1957C47.7998 90.7354 52.686 89.762 60.9925 89.2752L64.0219 88.9832V103.877C64.0219 115.559 64.0219 118.772 63.631 118.772C58.1585 118.772 50.0475 120.135 46.2363 121.692L43.5 122.763V153.038L45.5522 152.162C49.168 150.702 52.686 149.923 58.3539 149.242L63.9242 148.658V133.763L64.1196 118.869L65.39 118.674C67.5399 118.285 77.5077 118.48 81.0257 118.869L84.1529 119.258V134.153C84.3484 148.171 84.2506 148.95 83.6643 148.755C82.7848 148.268 69.2012 147.976 66.465 148.268L64.0219 148.56V178.446L65.9764 178.154C68.3217 177.765 78.7781 177.667 81.9053 178.057L84.3484 178.251V163.746C84.3484 155.569 84.4461 149.144 84.6415 149.144C85.2279 148.658 95.1956 150.896 101.841 152.746L104.186 153.525V182.729L106.434 183.313L116.499 186.429C122.363 188.278 135.067 191.296 136.728 191.296C136.826 191.296 136.924 194.606 136.924 198.597C136.924 203.27 137.021 205.898 137.314 205.898L149.628 207.845L150.8 208.04V193.73L152.071 193.924L161.55 195.092L163.504 195.287V209.305L168.781 209.5H175.622L177.088 209.305V195.677L180.215 195.287C189.037 194.397 197.214 190.283 203.17 183.739C209.125 177.195 212.436 168.685 212.464 159.853C212.952 146.321 208.555 139.409 197.023 135.905C196.73 135.808 197.219 135.029 198.587 133.763C201.946 130.293 204.541 126.164 206.207 121.638C207.873 117.112 208.573 112.29 208.262 107.479C207.675 93.5585 199.466 86.8415 180.313 84.4078L177.088 84.0184V70.0977L171.127 69.4162C168.839 69.2257 166.558 68.966 164.286 68.6375L163.602 68.4428V82.5582L162.234 82.4609L155.882 81.2927L150.996 80.3192L150.8 66.1064L144.057 64.4515L137.217 62.7966C136.954 65.0906 136.857 67.4004 136.924 69.7083C136.924 76.0359 136.923 76.62 136.337 76.62C135.946 76.62 133.112 75.9386 129.985 75.0624L124.122 73.5049C123.926 73.5049 123.731 79.8325 123.731 87.6203C123.731 98.718 123.731 101.736 123.34 101.736C123.047 101.736 118.845 100.373 113.959 98.6206L104.675 95.2135C104.284 95.1161 104.186 91.7089 104.088 80.4166V65.8144L99.9841 64.4515C96.2706 63.2833 85.521 60.3629 84.6415 60.3629C84.4461 60.3629 84.3484 65.8144 84.3484 74.9651L84.2506 89.762L80.0485 89.1779C77.6054 88.8858 73.5988 88.6911 70.0807 88.6911H64.2173V73.9916L64.0219 59L62.556 59.0973L56.6926 59.3894ZM90.4072 91.2222C92.8503 91.9036 96.9547 92.9744 99.4955 93.8506L104.186 95.3108V109.718C104.186 117.701 104.186 124.223 103.991 124.223L99.4955 122.958C97.1501 122.179 92.7526 121.108 89.8209 120.524L84.5438 119.356L84.3484 90.1514H85.1301L90.4072 91.2222ZM156.664 104.656L166.827 106.116C178.554 107.577 181.974 109.816 182.365 116.825C182.853 125.099 177.772 128.701 167.12 127.728C162.332 127.338 151.68 125.781 151.093 125.391C150.898 125.294 150.8 120.719 150.8 114.391V103.585L151.582 103.78L156.664 104.754M123.438 130.843C123.926 131.232 123.926 159.366 123.438 159.366L113.665 156.348L104.186 153.233V138.825C104.186 130.843 104.284 124.321 104.382 124.321L123.438 130.843ZM156.664 148.365C159.204 148.755 163.7 149.339 166.631 149.436C181.29 150.507 183.635 151.286 185.785 155.569C188.912 162.189 185.785 169.782 179.042 171.826C175.426 172.897 155.589 172.021 151.191 170.561C150.409 170.269 150.605 147.684 151.387 147.684L156.664 148.365Z" fill="#FF771C"/>
</svg>

<svg xmlns="http://www.w3.org/2000/svg" fill="none" viewBox="0 0 256 256"><path fill="#000" d="M128 256c70.692 0 128-57.308 128-128S198.692 0 128 0 0 57.308 0 128s57.308 128 128 128"/><path fill="#FF771C" fill-rule="evenodd" d="M56.693 59.39a32.4 32.4 0 0 0-11.238 2.336l-1.955.876v30.372l1.368-.778c2.932-1.46 7.818-2.434 16.124-2.92l3.03-.293v14.894c0 11.682 0 14.895-.391 14.895-5.473 0-13.583 1.363-17.395 2.92l-2.736 1.071v30.275l2.052-.876c3.616-1.46 7.134-2.239 12.802-2.92l5.57-.584v-14.895l.196-14.894 1.27-.195c2.15-.389 12.118-.194 15.636.195l3.127.389v14.895c.195 14.018.098 14.797-.489 14.602-.88-.487-14.463-.779-17.199-.487l-2.443.292v29.886l1.954-.292c2.346-.389 12.802-.487 15.93-.097l2.442.194v-14.505c0-8.177.098-14.602.293-14.602.587-.486 10.555 1.752 17.2 3.602l2.345.779v29.204l2.248.584 10.065 3.116c5.864 1.849 18.568 4.867 20.229 4.867.098 0 .196 3.31.196 7.301 0 4.673.097 7.301.39 7.301l12.314 1.947 1.172.195v-14.31l1.271.194 9.479 1.168 1.954.195v14.018l5.277.195h6.841l1.466-.195v-13.628l3.127-.39a35.9 35.9 0 0 0 22.955-11.548 35.66 35.66 0 0 0 9.294-23.886c.488-13.532-3.909-20.444-15.441-23.948-.293-.097.196-.876 1.564-2.142a34.6 34.6 0 0 0 7.62-12.125 34.5 34.5 0 0 0 2.055-14.159c-.587-13.92-8.796-20.638-27.949-23.071l-3.225-.39v-13.92l-5.961-.682a114 114 0 0 1-6.841-.778l-.684-.195v14.115l-1.368-.097-6.352-1.168-4.886-.974-.196-14.213-6.743-1.654-6.84-1.655a48 48 0 0 0-.293 6.911c0 6.328-.001 6.912-.587 6.912-.391 0-3.225-.681-6.352-1.558l-5.863-1.557c-.196 0-.391 6.328-.391 14.115 0 11.098 0 14.116-.391 14.116-.293 0-4.495-1.363-9.381-3.115l-9.284-3.407c-.391-.098-.489-3.505-.587-14.797V65.814l-4.104-1.362c-3.713-1.169-14.463-4.09-15.343-4.09-.195 0-.293 5.452-.293 14.603l-.097 14.797-4.203-.584c-2.443-.292-6.45-.487-9.967-.487h-5.864v-14.7L64.022 59l-1.466.097zm33.714 31.832c2.443.682 6.548 1.752 9.089 2.629l4.69 1.46v14.407c0 7.983 0 14.505-.195 14.505l-4.495-1.265c-2.346-.779-6.743-1.85-9.675-2.434l-5.277-1.168-.196-29.205h.782zm66.257 13.434 10.163 1.46c11.727 1.461 15.147 3.7 15.538 10.709.488 8.274-4.593 11.876-15.245 10.903-4.788-.39-15.44-1.947-16.027-2.337-.195-.097-.293-4.672-.293-11v-10.806l.782.195 5.082.974m-33.226 26.089c.488.389.488 28.523 0 28.523l-9.773-3.018-9.479-3.115v-14.408c0-7.982.098-14.504.196-14.504zm33.226 17.522c2.54.39 7.036.974 9.967 1.071 14.659 1.071 17.004 1.85 19.154 6.133 3.127 6.62 0 14.213-6.743 16.257-3.616 1.071-23.453.195-27.851-1.265-.782-.292-.586-22.877.196-22.877z" clip-rule="evenodd"/></svg>
